web/workspace/public/assets/icons/coins.svg

<svg xmlns="http://www.w3.org/2000/svg" width="30" height="30" viewBox="0 0 30 30"><path d="M22 11c-2.393 0-4.534.66-6 1.7V6c0-2.762-3.582-5-8-5S0 3.238 0 6v16c0 2.762 3.582 5 8 5 2.512 0 4.751-.725 6.218-1.857C15.046 27.353 18.212 29 22 29c4.418 0 8-2.238 8-5v-8c0-2.762-3.582-5-8-5zM8 3c3.434 0 6 1.584 6 3s-2.566 3-6 3-6-1.584-6-3 2.566-3 6-3zM2 9.3C3.466 10.34 5.607 11 8 11s4.534-.66 6-1.7v.7c0 1.416-2.566 3-6 3s-6-1.584-6-3v-.7zm0 4C3.466 14.34 5.607 15 8 15s4.534-.66 6-1.7v.7c0 1.416-2.566 3-6 3s-6-1.584-6-3v-.7zm0 4C3.466 18.34 5.607 19 8 19s4.534-.66 6-1.7v.7c0 1.416-2.566 3-6 3s-6-1.584-6-3v-.7zM8 25c-3.434 0-6-1.584-6-3v-.7C3.466 22.34 5.607 23 8 23s4.534-.66 6-1.7v.7c0 1.416-2.566 3-6 3zm20-1c0 1.416-2.566 3-6 3s-6-1.584-6-3v-.7c1.466 1.04 3.607 1.7 6 1.7s4.534-.66 6-1.7v.7zm0-4c0 1.416-2.566 3-6 3s-6-1.584-6-3v-.7c1.466 1.04 3.607 1.7 6 1.7s4.534-.66 6-1.7v.7zm-6-1c-3.434 0-6-1.584-6-3s2.566-3 6-3 6 1.584 6 3-2.566 3-6 3z"/></svg>

<?xml version="1.0" encoding="iso-8859-1"?>
<!-- Generator: Adobe Illustrator 14.0.0, SVG Export Plug-In . SVG Version: 6.00 Build 43363)  -->
<!DOCTYPE svg PUBLIC "-//W3C//DTD SVG 1.1//EN" "http://www.w3.org/Graphics/SVG/1.1/DTD/svg11.dtd">
<svg version="1.1" id="Layer_1" xmlns="http://www.w3.org/2000/svg" xmlns:xlink="http://www.w3.org/1999/xlink" x="0px" y="0px"
	 width="30px" height="30px" viewBox="0 0 30 30" style="enable-background:new 0 0 30 30;" xml:space="preserve">
<path d="M22,11c-2.393,0-4.534,0.66-6,1.7V6c0-2.762-3.582-5-8-5S0,3.238,0,6v16c0,2.762,3.582,5,8,5
	c2.512,0,4.751-0.725,6.218-1.857C15.046,27.353,18.212,29,22,29c4.418,0,8-2.238,8-5v-8C30,13.238,26.418,11,22,11z M8,3
	c3.434,0,6,1.584,6,3s-2.566,3-6,3S2,7.416,2,6S4.566,3,8,3z M2,9.3C3.466,10.34,5.607,11,8,11s4.534-0.66,6-1.7V10
	c0,1.416-2.566,3-6,3s-6-1.584-6-3V9.3z M2,13.3C3.466,14.34,5.607,15,8,15s4.534-0.66,6-1.7V14c0,1.416-2.566,3-6,3s-6-1.584-6-3
	V13.3z M2,17.3C3.466,18.34,5.607,19,8,19s4.534-0.66,6-1.7V18c0,1.416-2.566,3-6,3s-6-1.584-6-3V17.3z M8,25c-3.434,0-6-1.584-6-3
	v-0.7C3.466,22.34,5.607,23,8,23s4.534-0.66,6-1.7V22C14,23.416,11.434,25,8,25z M28,24c0,1.416-2.566,3-6,3s-6-1.584-6-3v-0.7
	c1.466,1.04,3.607,1.7,6,1.7s4.534-0.66,6-1.7V24z M28,20c0,1.416-2.566,3-6,3s-6-1.584-6-3v-0.7c1.466,1.04,3.607,1.7,6,1.7
	s4.534-0.66,6-1.7V20z M22,19c-3.434,0-6-1.584-6-3s2.566-3,6-3s6,1.584,6,3S25.434,19,22,19z"/>
</svg>
